!!!OTL: ES WAR EIN REICHER KAUFMANNSSOHN
!!!ARE: Europa, Mitteleuropa, Deutschland, Wetzlar, Philippstein
!!!SCT: E0053
!!!YEM: Copyright 1995, estate of Helmut Schaffrath.
**kern
*ICvox
*Ivox
*M6/8
*k[f#]
*G:
{8d
=1
4g
8g
8b
8a
8g
=2
4a
8a
4a}
{16b
16a
=3
4g
8b
4dd
8b
=4
4b
8a
4r}
{8b
=5
8cc
8ee
8ee
8ee
8dd
8cc
=6
8b
8dd
8dd
4dd}
{8b
=7
4a
8a
4dd
8a
=8
4a
8g
4r}
==
!!!AGN: erzaehlendes Volks - Lied, Sage, Mord, Ballade ?
!!!ONB: ESAC (Essen Associative Code) Database: ERK1
!!!AMT: compound duple
!!!AIN: vox
!!!EED: Helmut Schaffrath
!!!EEV: 1.0
*-
